
d1
$ fast 0.5 $ sometimes (# up ("[-4|22]")) $ n (scale "lydian" "{[[1 ~!7 4 8 3]*[3|5],[[1|7|9]*8?]]}%3") # s "tides" 
# speed 1.7 # accelerate "[4|0.125|0.25]" # pan (0.5) # shift (range 0 1 $ (fast 2 $ sine)) 
# mode 2
-- # verb 0.2 0.25 0.25 0.2
-- # cloudsblend 0.3 0.2 0.3 0.3
# amp 1

hush

d2
$ every 4 (# accelerate "[-4 4]")
$ whenmod 12 9 (# nudge (range 0.99 0.9 $ tri))
$ somecyclesBy 0.125 (scramble 4)
$ every 6 (# up "[3|-2]")
$ stack [
    s "{ghosty-kicks:4(5,12), ~ GRIME-Eski:73!4 ~, KILPACK_HATS:11*12}%2"
    , 
    sometimes (shuffle 4) $ s "[Fairlight_CMI:318(5,12)]" # up (scale "wholetone" "[0 12 7 9 1]") # start 0.6 # release 0.3
    , 
    every 5 (# binshift "[0.5 3]") $ euclidInv 5 12 (s "Doudou1:52") 
]
-- # verb 0.6 0.4 0.85 0.85 
# amp 0.8
# cps (95/60/4)

d3 
    $ 
    whenmod 12 9 (hurry (slow 6 $ range 1 1.05 $ saw)) $ 
    stack [
        somecyclesBy 0.5 (0.125 <~) $ s "[KILPACK_HATS:1*8, KILPACK_SNARES:8*16?]" # cut 0 # up (-2)
        , somecyclesBy 0.5 (mask "~!2 t!1") $ sometimes (randslice 16) $ slice 8 "[2 3 4 6] [1 0 4 0]" $ s "GRIME-Eski:30*6" # cut 2 # up "<12 7 2>"
        , whenmod 19 16 ((degradeBy 0) . (fast 2)) $ degradeBy 0.5 $ rarely (0.1 ~>) $ s "Doudou2:45*8" # cut 1
        , fast 8 $ randslice "[6|12]" $ s "umru_bernie:32" # cut 3 # pan "[0|1|0.3|0.6]" # up (segment 15 (fast 2 $ range (-24) 0 $ sine))
    ] 
# amp 0.8
-- every 3 (# fshift (750)) $ euclidInv 11 16 (s "stxl:1") 
    
hush

d4
$ every 8 (slice 4 "[3 2 1 0]*2")
$ every 12 ((hurry 2) . (|+ n (irand 8)) . (# cut 1))
$ whenmod 14 11 (linger (1/5))
$ whenmod 7 5 ((hurry 2) . (slow 2)) $ never (# accelerate ("[-2 2]")) 
$ stack [
    "{[galvaKicks:3!2 galvaClaps:2!3], galvaPerc:3*10}%1" 
    , 
    degradeBy (1/3) $
    someCyclesBy (1/8) (|+ n (irand 5)) $
    every 4 (# up "[7|-7|2]") $
    s "umru_sounds:12*5" # cut 1 
    ,
    rarely (# up ("[7|-2]")) $ s "[~!2 umru_vocal:4*2 ~!2]" # cut 2 # gain 1 
    ]
-- # cloudsblend 0.3 0.7 0.3 0.2
# cps (150/60/4)

hush


d5 $ stack [
    whenmod 5 4 (jux rev) $ somecyclesBy 0.25 (degrade) $ somecyclesBy 0.2 ((shuffle 4)) 
    $ slice 6 "{4 3 2 1 0 ~!3}*2" 
    $ s "stxl:6" # up ("[-7|0|3]")
    # release 0.4
    -- # cut 2
    , somecyclesBy (1/3) (fast 0.5) $ degradeBy 0.125 $ s "galvaHats:1*16" # up "[-2, -11, 5]" 
    , s "[~!2 Doudou2:64*2 ~!5]" # shape 0.75
    , whenmod 6 5 ((# nudge 1.5) . (# up "[12]")) $ s "ghosty-kicks:12(3,8)" 
]
# cps(150/60/4)


scaleList

d6 
$ whenmod 12 8 (# cps (145/60/4))
$ stack [
    whenmod 20 18 ((|+ n ((range 1 200 $ rand))) . (# cut 1)) $ rarely ((jux rev)) $ s "Mega_Genesis:13([3|5],8)" *| up (scale "sikah" "[[0|12] [2|4] 3 7]*4") # cut 0 
    ,
    somecyclesBy 0.25 ((fast 1.5) . (# shape 0.5)) $ s "ghosty-kicks:2(5,8)" 
    ,
    whenmod 16 18 (hurry 2) $ every 5 (# up "[9|3|1]") $ euclidFull 3 16 (s "stxl:2") (s "Fairlight_CMI:87") # cut 2 # gain 0.9
    ,
    somecyclesBy (1/8) (striate 16) $ loopAt 4 $ randslice 4 $ s "stxl:5*8" # cut 3 
]
# cps (145/60/8)
# amp 1

hush

let
-- mutable synths
    timbre = pF "timbre"
    color = pF "color"
    model = pI "model"
    mode = pI "mode"
    tidesshape = pF "tidesshape"
    tidessmooth = pF "tidessmooth"
    slope = pF "slope"
    shift = pF "shift"
    engine = pI "engine"
    harm = pF "harm"
    morph = pF "morph"
    level = pF "level"
    lpgdecay = pF "lpgdecay"
    lpgcolour = pF "lpgcolour"
    lpg d c = lpgdecay d # lpgcolour c
-- mutable effects
    cloudspitch = pF "cloudspitch"
    cloudspos = pF "cloudspos"
    cloudssize = pF "cloudssize"
    cloudsdens = pF "cloudsdens"
    cloudstex = pF "cloudstex"
    cloudswet = pF "cloudswet"
    cloudsgain = pF "cloudsgain"
    cloudsspread = pF "cloudsspread"
    cloudsrvb = pF "cloudsrvb"
    cloudsfb = pF "cloudsfb"
    cloudsfreeze = pF "cloudsfreeze"
    cloudsmode = pF "cloudsmode"
    cloudslofi = pF "cloudslofi"
    clouds p s d t = cloudsgain 1 # cloudspos p # cloudssize s # cloudsdens d # cloudstex t
    cloudsblend w s f r = cloudsgain 1 # cloudswet w # cloudsspread s # cloudsfb f # cloudsrvb r
    verbgain = pF "verbgain"
    verbwet = pF "verbwet"
    verbtime = pF "verbtime"
    verbdamp = pF "verbdamp"
    verbhp = pF "verbhp"
    verbfreeze = pI "verbfreeze"
    verbdiff = pF "verbdiff"
    verb w t d h = verbgain 1 # verbwet w # verbtime t # verbdamp d # verbhp h
    
